X: 493
T: Wei pengyou
%%abc-version 2.0
%%abcx-abcm2ps-target-version 5.9.1 (29 Sep 2008)
%%abc-creator hum2abc beta
%%abcx-conversion-date 2013/10/02 07:52:30
%%abc-edited-by Helmut Schaffrath
%%humdrum-veritas 137342970
%%humdrum-veritas-data 1123824322
%%continueall 1
%%barnumbers 0
L: 1/8
M: 2/4
K: Eb
F F/ G/ c B/ c/ [I:setbarnb 1]| 
e e e f | 
c3A | 
F2F G | 
F4 | 
F F/ G/ c B/ c/ | 
e e e f | 
c3A | 
F2F G | 
B4 |]  



